starwars/_inc/system.svg

<svg xmlns="http://www.w3.org/2000/svg"><g fill="#fff"><path d="m256.164 207.216h-18.288c-.645 0-1.11-.726-1.11-1.422 0-.246 9.735-31.623 9.735-31.623.345-1.173.378-1.206.51-1.206h.018c.147 0 .165.033.51 1.206 0 0 9.732 31.377 9.732 31.623 0 .696-.495 1.422-1.107 1.422m24.669-71.79c-.183-.627-.744-1.092-1.404-1.14h-67.164c-.678.066-1.224.513-1.407 1.122 0 0-37.125 122.565-37.125 122.796 0 .612.48 1.107 1.107 1.107h44.397c.345-.132.612-.462.693-.843l5.172-16.521c.165-.414.546-.696 1.008-.711l40.959-.033c.447.033.843.348 1.008.744l5.289 16.521c.081.381.345.729.693.861 0 0 43.653-.018 43.686-.018.612 0 1.122-.462 1.122-1.074 0-.213-38.034-122.811-38.034-122.811"/><path d="m407.397 185.466-27.279.018s-.726-.216-.726-1.041l-.018-13.764c0-.825.726-1.041.726-1.041h25.017c2.907 0 8.79 1.455 8.79 8.178 0 6.726-6.51 7.65-6.51 7.65m130.791-10.656h61.812v-40.53h-79.473c-7.437 0-17.895 3.834-23.892 8.277-5.997 4.446-14.673 14.574-14.673 28.536s8.478 24.816 8.478 24.816c4.344 5.388 15.282 16.605 15.282 16.605.249.264.396.612.396 1.008 0 .843-.678 1.521-1.518 1.521h-61.218c-7.452-.033-7.965-2.991-7.965-3.42 0-.762.927-1.239.927-1.239 2.793-1.338 8.493-5.784 8.493-5.784 12.093-9.417 13.548-22.338 13.548-29.262 0-6.939-1.041-19.215-13.449-29.97-12.408-10.758-28.122-11.055-28.122-11.055h-87.357v124.284c0 .396.366.711.762.711h48.627v-34.863c0-.612.942 0 .942 0l25.329 25.443c9.003 9.105 23.892 9.42 23.892 9.42l95.763-.018c16.341 0 25.428-8.889 27.924-11.367 2.478-2.496 10.755-11.799 10.755-27.213 0-15.399-7.038-23.28-10.044-26.898-2.676-3.24-13.35-14.541-15.582-16.887-.264-.216-.429-.546-.429-.909 0-.546.312-1.059.792-1.206"/><path d="m151.542 259.302c.33 0 .561-.231.66-.594 0 0 37.623-123.573 37.623-123.687 0-.33-.201-.696-.513-.729 0 0-46.347 0-46.38 0-.231 0-.381.183-.429.432 0 .015-9.6 32.136-9.6 32.151-.066.267-.198.432-.429.432s-.432-.231-.465-.432l-10.044-32.169c-.033-.213-.198-.414-.429-.414-.018 0-51.219-.015-51.219-.015-.15.033-.282.165-.333.297 0 0-9.003 32.286-9.003 32.286-.051.282-.198.447-.447.447-.216 0-.396-.165-.429-.381l-9.552-32.253c-.015-.198-.18-.363-.378-.396h-49.437c-.396 0-.726.33-.726.744 0 .066.015.198.015.198s38.169 123.438 38.184 123.489c.099.363.33.594.663.594.048 0 41.058.018 41.058.018.246-.033.495-.315.561-.612.015 0 14.292-45.948 14.292-45.948.081-.282.198-.447.429-.447.249 0 .381.198.447.429l13.929 46.164c.081.231.297.396.561.396z"/><path d="m115.824.006c-7.452 0-17.895 3.834-23.892 8.277-6 4.446-14.673 14.574-14.673 28.533 0 13.962 8.475 24.819 8.475 24.819 4.347 5.385 15.285 16.689 15.285 16.689.249.264.396.609.396.99 0 .843-.678 1.536-1.518 1.536-.132 0-99.897 0-99.897 0v44.181h120.069c16.326 0 25.428-8.889 27.924-11.382 2.478-2.481 10.74-11.781 10.74-27.198 0-15.399-7.023-23.361-10.029-26.982-2.679-3.237-13.35-14.472-15.582-16.803-.264-.231-.429-.561-.429-.924 0-.546.315-1.041.792-1.206h57.831v84.495h44.46v-84.282h53.982v-40.743z"/><path d="m503.619 51.192-27.279.018s-.726-.216-.726-1.041l-.015-13.764c0-.825.726-1.041.726-1.041h25.017c2.907 0 8.79 1.455 8.79 8.178 0 6.726-6.513 7.65-6.513 7.65m35.988 29.577c-7.434-.033-7.965-2.991-7.965-3.42 0-.762.924-1.242.924-1.242 2.793-1.335 8.493-5.781 8.493-5.781 12.096-9.417 13.551-22.338 13.551-29.262 0-6.939-1.041-19.215-13.452-29.973-12.408-10.755-28.119-11.085-28.119-11.085h-87.357v124.317c0 .396.366.711.762.711h48.624v-34.848c0-.627.942 0 .942 0l25.332 25.428c9.003 9.105 23.889 9.42 23.889 9.42h74.766v-44.265z"/><path d="m354.759 72.93h-18.291c-.678 0-1.107-.726-1.107-1.422 0-.264 9.732-31.623 9.732-31.623.348-1.173.447-1.206.513-1.206h.015c.066 0 .165.033.513 1.206 0 0 9.732 31.359 9.732 31.623 0 .696-.447 1.422-1.107 1.422m24.618-71.823c-.183-.627-.726-1.074-1.404-1.107h-67.164c-.66.033-1.224.48-1.404 1.089 0 0-37.095 122.598-37.095 122.829 0 .612.498 1.107 1.107 1.107h44.397c.363-.114.627-.462.711-.843l5.172-16.539c.165-.396.543-.675 1.008-.693h40.941c.462.033.843.315 1.026.711l5.286 16.521c.084.381.348.729.693.861 0 0 43.653-.018 43.686-.018.612 0 1.107-.462 1.107-1.089 0-.198-38.067-122.829-38.067-122.829"/></g></svg>

<?xml version="1.0" encoding="utf-8"?>
<svg version="1.1" id="svg5479" xmlns="http://www.w3.org/2000/svg">
  <g>
    <path d="M 256.164 207.216 L 237.876 207.216 C 237.231 207.216 236.766 206.49 236.766 205.794 C 236.766 205.548 246.501 174.171 246.501 174.171 C 246.846 172.998 246.879 172.965 247.011 172.965 L 247.029 172.965 C 247.176 172.965 247.194 172.998 247.539 174.171 C 247.539 174.171 257.271 205.548 257.271 205.794 C 257.271 206.49 256.776 207.216 256.164 207.216 M 280.833 135.426 C 280.65 134.799 280.089 134.334 279.429 134.286 L 212.265 134.286 C 211.587 134.352 211.041 134.799 210.858 135.408 C 210.858 135.408 173.733 257.973 173.733 258.204 C 173.733 258.816 174.213 259.311 174.84 259.311 L 219.237 259.311 C 219.582 259.179 219.849 258.849 219.93 258.468 L 225.102 241.947 C 225.267 241.533 225.648 241.251 226.11 241.236 L 267.069 241.203 C 267.516 241.236 267.912 241.551 268.077 241.947 L 273.366 258.468 C 273.447 258.849 273.711 259.197 274.059 259.329 C 274.059 259.329 317.712 259.311 317.745 259.311 C 318.357 259.311 318.867 258.849 318.867 258.237 C 318.867 258.024 280.833 135.426 280.833 135.426" style="fill-opacity: 1; fill-rule: nonzero; stroke: none; fill: rgb(255, 255, 255);" id="path4165"/>
    <path d="M 407.397 185.466 L 380.118 185.484 C 380.118 185.484 379.392 185.268 379.392 184.443 L 379.374 170.679 C 379.374 169.854 380.1 169.638 380.1 169.638 L 405.117 169.638 C 408.024 169.638 413.907 171.093 413.907 177.816 C 413.907 184.542 407.397 185.466 407.397 185.466 M 538.188 174.81 L 600 174.81 L 600 134.28 L 520.527 134.28 C 513.09 134.28 502.632 138.114 496.635 142.557 C 490.638 147.003 481.962 157.131 481.962 171.093 C 481.962 185.055 490.44 195.909 490.44 195.909 C 494.784 201.297 505.722 212.514 505.722 212.514 C 505.971 212.778 506.118 213.126 506.118 213.522 C 506.118 214.365 505.44 215.043 504.6 215.043 L 443.382 215.043 C 435.93 215.01 435.417 212.052 435.417 211.623 C 435.417 210.861 436.344 210.384 436.344 210.384 C 439.137 209.046 444.837 204.6 444.837 204.6 C 456.93 195.183 458.385 182.262 458.385 175.338 C 458.385 168.399 457.344 156.123 444.936 145.368 C 432.528 134.61 416.814 134.313 416.814 134.313 L 329.457 134.313 C 329.457 134.313 329.457 258.564 329.457 258.597 C 329.457 258.993 329.823 259.308 330.219 259.308 L 378.846 259.308 L 378.846 224.445 C 378.846 223.833 379.788 224.445 379.788 224.445 L 405.117 249.888 C 414.12 258.993 429.009 259.308 429.009 259.308 L 524.772 259.29 C 541.113 259.29 550.2 250.401 552.696 247.923 C 555.174 245.427 563.451 236.124 563.451 220.71 C 563.451 205.311 556.413 197.43 553.407 193.812 C 550.731 190.572 540.057 179.271 537.825 176.925 C 537.561 176.709 537.396 176.379 537.396 176.016 C 537.396 175.47 537.708 174.957 538.188 174.81" style="fill-opacity: 1; fill-rule: nonzero; stroke: none; fill: rgb(255, 255, 255);" id="path4169"/>
    <path d="M 151.542 259.302 C 151.872 259.302 152.103 259.071 152.202 258.708 C 152.202 258.708 189.825 135.135 189.825 135.021 C 189.825 134.691 189.624 134.325 189.312 134.292 C 189.312 134.292 142.965 134.292 142.932 134.292 C 142.701 134.292 142.551 134.475 142.503 134.724 C 142.503 134.739 132.903 166.86 132.903 166.875 C 132.837 167.142 132.705 167.307 132.474 167.307 C 132.243 167.307 132.042 167.076 132.009 166.875 L 121.965 134.706 C 121.932 134.493 121.767 134.292 121.536 134.292 C 121.518 134.292 70.317 134.277 70.317 134.277 C 70.167 134.31 70.035 134.442 69.984 134.574 C 69.984 134.574 60.981 166.86 60.981 166.86 C 60.93 167.142 60.783 167.307 60.534 167.307 C 60.318 167.307 60.138 167.142 60.105 166.926 L 50.553 134.673 C 50.538 134.475 50.373 134.31 50.175 134.277 L 0.738 134.277 C 0.342 134.277 0.012 134.607 0.012 135.021 C 0.012 135.087 0.027 135.219 0.027 135.219 C 0.027 135.219 38.196 258.657 38.211 258.708 C 38.31 259.071 38.541 259.302 38.874 259.302 C 38.922 259.302 79.932 259.32 79.932 259.32 C 80.178 259.287 80.427 259.005 80.493 258.708 C 80.508 258.708 94.785 212.76 94.785 212.76 C 94.866 212.478 94.983 212.313 95.214 212.313 C 95.463 212.313 95.595 212.511 95.661 212.742 L 109.59 258.906 C 109.671 259.137 109.887 259.302 110.151 259.302 C 110.184 259.302 151.542 259.302 151.542 259.302" style="fill-opacity: 1; fill-rule: nonzero; stroke: none; fill: rgb(255, 255, 255);" id="path4173"/>
    <path d="M 115.824 0.006 C 108.372 0.006 97.929 3.84 91.932 8.283 C 85.932 12.729 77.259 22.857 77.259 36.816 C 77.259 50.778 85.734 61.635 85.734 61.635 C 90.081 67.02 101.019 78.324 101.019 78.324 C 101.268 78.588 101.415 78.933 101.415 79.314 C 101.415 80.157 100.737 80.85 99.897 80.85 C 99.765 80.85 0 80.85 0 80.85 L 0 125.031 L 120.069 125.031 C 136.395 125.031 145.497 116.142 147.993 113.649 C 150.471 111.168 158.733 101.868 158.733 86.451 C 158.733 71.052 151.71 63.09 148.704 59.469 C 146.025 56.232 135.354 44.997 133.122 42.666 C 132.858 42.435 132.693 42.105 132.693 41.742 C 132.693 41.196 133.008 40.701 133.485 40.536 L 191.316 40.536 L 191.316 125.031 L 235.776 125.031 L 235.776 40.749 L 289.758 40.749 L 289.758 0.006 L 115.824 0.006 Z" style="fill-opacity: 1; fill-rule: nonzero; stroke: none; fill: rgb(255, 255, 255);" id="path4177"/>
    <path d="M 503.619 51.192 L 476.34 51.21 C 476.34 51.21 475.614 50.994 475.614 50.169 L 475.599 36.405 C 475.599 35.58 476.325 35.364 476.325 35.364 L 501.342 35.364 C 504.249 35.364 510.132 36.819 510.132 43.542 C 510.132 50.268 503.619 51.192 503.619 51.192 M 539.607 80.769 C 532.173 80.736 531.642 77.778 531.642 77.349 C 531.642 76.587 532.566 76.107 532.566 76.107 C 535.359 74.772 541.059 70.326 541.059 70.326 C 553.155 60.909 554.61 47.988 554.61 41.064 C 554.61 34.125 553.569 21.849 541.158 11.091 C 528.75 0.336 513.039 0.006 513.039 0.006 L 425.682 0.006 C 425.682 0.006 425.682 124.29 425.682 124.323 C 425.682 124.719 426.048 125.034 426.444 125.034 C 426.525 125.034 475.068 125.034 475.068 125.034 L 475.068 90.186 C 475.068 89.559 476.01 90.186 476.01 90.186 L 501.342 115.614 C 510.345 124.719 525.231 125.034 525.231 125.034 L 599.997 125.034 L 599.997 80.769 L 539.607 80.769 Z" style="fill-opacity: 1; fill-rule: nonzero; stroke: none; fill: rgb(255, 255, 255);" id="path4181"/>
    <path d="M 354.759 72.93 L 336.468 72.93 C 335.79 72.93 335.361 72.204 335.361 71.508 C 335.361 71.244 345.093 39.885 345.093 39.885 C 345.441 38.712 345.54 38.679 345.606 38.679 L 345.621 38.679 C 345.687 38.679 345.786 38.712 346.134 39.885 C 346.134 39.885 355.866 71.244 355.866 71.508 C 355.866 72.204 355.419 72.93 354.759 72.93 M 379.377 1.107 C 379.194 0.48 378.651 0.033 377.973 0 L 310.809 0 C 310.149 0.033 309.585 0.48 309.405 1.089 C 309.405 1.089 272.31 123.687 272.31 123.918 C 272.31 124.53 272.808 125.025 273.417 125.025 L 317.814 125.025 C 318.177 124.911 318.441 124.563 318.525 124.182 L 323.697 107.643 C 323.862 107.247 324.24 106.968 324.705 106.95 L 365.646 106.95 C 366.108 106.983 366.489 107.265 366.672 107.661 L 371.958 124.182 C 372.042 124.563 372.306 124.911 372.651 125.043 C 372.651 125.043 416.304 125.025 416.337 125.025 C 416.949 125.025 417.444 124.563 417.444 123.936 C 417.444 123.738 379.377 1.107 379.377 1.107" style="fill-opacity: 1; fill-rule: nonzero; stroke: none; fill: rgb(255, 255, 255);" id="path4185"/>
  </g>
</svg>
